X: 11013
T: The KILWINNING PAPINGO WALTZ
C: J. M.
P: Copyright
%R: waltz
B: W. Hamilton "Universal Tune-Book" Vol. 1 Glasgow 1844 p.101 #3
S: http://imslp.org/wiki/Hamilton's_Universal_Tune-Book_(Various)
Z: 2016 John Chambers <jc:trillian.mit.edu>
M: 3/8
L: 1/16
K: G
% - - - - - - - - - - - - - - - - - - - - - - - - -
D2 |\
G2B2A2 | A2c2B2 | e2d2c2 | c2B2B2 |\
g2f2e2 | f2e2d2 | d2g2B2 | B2A2A2 |\
e2c2A2 | F2d2c2 | B2E2A2 | G2F2A2 |\
B2e2d2 | g2f2a2 | g2d2B2 | "^Fin."G4 H|]
d2 |\
gfgfgf | g4d2 | ededed | e4B2 |\
BcABGe | d4a2 | gfedcB | B2A2A2 |\
GFGABc | b2g2d2 | agfedc | g2f2e2 |\
dcedfa | g4B2 | d2c2A2 | G4 |]
D2 |\
D6- | D4G2 | B6- | B4A2 |\
c6- | c4B2 | e2d2^c2 | d4g2 |\
g6- | g4d2 | e6- | e4B2 |\
(=c6 | ^c4)e2 | (e6 | "^D.C."d4) |]
% - - - - - - - - - - - - - - - - - - - - - - - - -

%%sep 1 1 500
%%sep 1 1 500

